X: 275
T: Beni Sev Ruhumu Sar
C: Mısırlı Udî İbrahim Efendi
O: Turkey
F: http://compmusic.upf.edu/node/140
N: hicaz--sarki--aksak--beni_sev--misirli_udi_ibrahim_efendi
N: makam= hicaz
N: form= sarki
N: usul= aksak = 9/8
M: 9/8
L: 1/16
K: C _7/8B ^f ^c 
Q: 1/4=132
%%MIDI tuningsystem comma53
A4 c2d2 e4 A2c2 e2 | g=f edcB BAA8-A2  | \
w:  *  Be ni  sev  SAZ  |  ru *  *  *  hu *  mu  *  sar   | 
a4 g2f2 e2d2 e2f2 g2 | 
w:  kal bi me  yas *  lan   | 
a2 =bggf fee4e=f edcB  | A4 c2d2 e4 A2c2 e2 | 
w:  *  *  *  be *  ni  *  sev   SAZ  |  *  Be ni  sev  SAZ  | 
g=f edcB BAA8-A2  | a4 g2f2 e2d2 e2f2 g2 | \
w:  ru *  *  *  hu *  mu  *  sar   |  kal bi me  yas *  lan   | 
a2 =bggf fee4e=f edcd  | 
w:  *  *  *  be *  ni  *  sev   SAZ  | 
e4 d2ef g4 gaga gf | g2 (3^1/4fefg2 aggf fee4(3gfe  | 
w:  *  Ne  o *  lur  gön  |  *  *  *  *  lüm_ a *  vun *  *  *  sun   | 
e4 e2g2 =f2e2 d2c2 B2 | A3Ged edc4cd cBAB  | 
w:  *  di ye  bir  *  an   |  *  *  be *  ni  *  sev   SAZ  | 
c4 d2a2 a4 =c'=bba ag | g=f feed dccB BAA4Bc  | 
w:  *  Ne  o lur  gön  |  *  *  *  *  lüm_ *  a *  vun *  *  *  sun   | 
d4 d2g2 =f2e2 d2c2 BA | e2 dccB BAA4f3gf=f  | 
w:  *  di ye  bir  *  an   |  *  *  *  be *  ni  *  sev   SAZ  | 
f4 d2f2 f4 g2f2 ^e2 | d2 (3c^Bcd2 =f2^f4a4gf  | \
w:  *  Yi ne  ay rıl  |  *  *  *  *  ma ya cak mış   | 
g3f =bagf e4 e4 d2 | 
w:  *  *  gi *  bi  *  can dan   | 
(3aga =bggf fee4e=f edcd  | e4 d2ef g4 gaga gf | 
w:  *  *  *  *  *  be *  ni  *  sev   SAZ  |  *  Ne  o *  lur  gön  | 
g2 (3^1/4fefg2 aggf fee4(3gfe  | e4 e2g2 =f2e2 d2c2 B2 | 
w:  *  *  *  *  lüm_ a *  vun *  *  *  sun   |  *  di ye  bir  *  an   | 
A3Ged edc4cd cBAB  | c4 d2a2 a4 =c'=bba ag | 
w:  *  *  be *  ni  *  sev   SAZ  |  *  Ne  o lur  gön  | 
g=f feed dccB BAA4Bc  | d4 d2g2 =f2e2 d2c2 BA | 
w:  *  *  *  *  lüm_ *  a *  vun *  *  *  sun   |  *  di ye  bir  *  an   | 
e2 dccB BAA8-A2  | |


